assets/LinkedIn.svg

<svg width="40" height="40" viewBox="0 0 40 40" fill="none" xmlns="http://www.w3.org/2000/svg">
<path d="M31.6667 0H8.33333C3.73167 0 0 3.73167 0 8.33333V31.6667C0 36.2683 3.73167 40 8.33333 40H31.6667C36.27 40 40 36.2683 40 31.6667V8.33333C40 3.73167 36.27 0 31.6667 0ZM13.3333 31.6667H8.33333V13.3333H13.3333V31.6667ZM10.8333 11.22C9.22333 11.22 7.91667 9.90333 7.91667 8.28C7.91667 6.65667 9.22333 5.34 10.8333 5.34C12.4433 5.34 13.75 6.65667 13.75 8.28C13.75 9.90333 12.445 11.22 10.8333 11.22ZM33.3333 31.6667H28.3333V22.3267C28.3333 16.7133 21.6667 17.1383 21.6667 22.3267V31.6667H16.6667V13.3333H21.6667V16.275C23.9933 11.965 33.3333 11.6467 33.3333 20.4017V31.6667Z" fill="white"/>
</svg>

<?xml version="1.0" encoding="utf-8"?>
<!-- Generator: Adobe Illustrator 26.5.2, SVG Export Plug-In . SVG Version: 6.00 Build 0)  -->
<svg version="1.1" id="Layer_1" xmlns="http://www.w3.org/2000/svg" xmlns:xlink="http://www.w3.org/1999/xlink" x="0px" y="0px"
	 viewBox="0 0 40 40" style="enable-background:new 0 0 40 40;" xml:space="preserve">
<path d="M31.7,0H8.3C3.7,0,0,3.7,0,8.3v23.3C0,36.3,3.7,40,8.3,40h23.3c4.6,0,8.3-3.7,8.3-8.3V8.3C40,3.7,36.3,0,31.7,0z M13.3,31.7
	h-5V13.3h5V31.7z M10.8,11.2c-1.6,0-2.9-1.3-2.9-2.9s1.3-2.9,2.9-2.9c1.6,0,2.9,1.3,2.9,2.9S12.4,11.2,10.8,11.2z M33.3,31.7h-5
	v-9.3c0-5.6-6.7-5.2-6.7,0v9.3h-5V13.3h5v2.9c2.3-4.3,11.7-4.6,11.7,4.1V31.7z"/>
</svg>
